flaticon/design/oval-2.svg

<svg xmlns="http://www.w3.org/2000/svg" width="32" height="32" viewBox="0 0 24 24">
    <path d="M24 10.398438L20.800781 10.398438 20.800781 13.601562 21.867188 13.601562C21.828125 13.839844 21.785156 14.082031 21.726562 14.316406 21.675781 14.53125 21.808594 14.75 22.023438 14.800781 22.054688 14.808594 22.085938 14.808594 22.117188 14.808594 22.296875 14.808594 22.460938 14.6875 22.503906 14.503906 22.570312 14.234375 22.625 13.960938 22.664062 13.6875 22.671875 13.65625 22.664062 13.628906 22.660156 13.597656L24 13.597656zM23.199219 12.800781L21.601562 12.800781 21.601562 11.199219 23.199219 11.199219zM21.507812 8.902344C21.585938 9.144531 21.65625 9.394531 21.71875 9.644531 21.761719 9.828125 21.925781 9.949219 22.105469 9.949219 22.136719 9.949219 22.167969 9.945312 22.199219 9.9375 22.414062 9.886719 22.546875 9.671875 22.496094 9.457031 22.429688 9.1875 22.355469 8.917969 22.269531 8.65625 22.203125 8.445312 21.976562 8.332031 21.765625 8.398438 21.554688 8.46875 21.441406 8.695312 21.507812 8.902344zM3.667969 17.53125C3.546875 17.34375 3.300781 17.296875 3.113281 17.417969 2.929688 17.539062 2.878906 17.789062 3.003906 17.972656 3.15625 18.199219 3.320312 18.425781 3.488281 18.644531 3.566406 18.746094 3.6875 18.800781 3.804688 18.800781 3.890625 18.800781 3.976562 18.773438 4.050781 18.714844 4.226562 18.578125 4.253906 18.328125 4.121094 18.152344 3.960938 17.953125 3.808594 17.742188 3.667969 17.53125zM20.921875 7.484375C20.992188 7.621094 21.132812 7.703125 21.28125 7.703125 21.339844 7.703125 21.402344 7.6875 21.460938 7.660156 21.65625 7.558594 21.734375 7.320312 21.636719 7.121094 21.511719 6.875 21.375 6.632812 21.230469 6.394531 21.117188 6.207031 20.871094 6.148438 20.683594 6.261719 20.492188 6.375 20.433594 6.621094 20.546875 6.8125 20.679688 7.03125 20.808594 7.257812 20.921875 7.484375zM5.15625 19.289062C4.996094 19.136719 4.742188 19.144531 4.589844 19.304688 4.4375 19.464844 4.449219 19.71875 4.609375 19.871094 4.808594 20.0625 5.019531 20.246094 5.234375 20.414062 5.308594 20.476562 5.398438 20.503906 5.484375 20.503906 5.601562 20.503906 5.71875 20.453125 5.796875 20.355469 5.9375 20.183594 5.90625 19.929688 5.738281 19.792969 5.539062 19.632812 5.34375 19.464844 5.15625 19.289062zM2.917969 16.1875C2.8125 15.957031 2.714844 15.71875 2.625 15.476562 2.546875 15.269531 2.320312 15.164062 2.109375 15.242188 1.902344 15.320312 1.796875 15.546875 1.875 15.757812 1.96875 16.015625 2.078125 16.273438 2.195312 16.523438 2.261719 16.667969 2.40625 16.753906 2.558594 16.753906 2.613281 16.753906 2.671875 16.742188 2.722656 16.71875 2.925781 16.625 3.011719 16.386719 2.917969 16.1875zM2.707031 7.320312C2.765625 7.351562 2.832031 7.367188 2.898438 7.367188 3.039062 7.367188 3.175781 7.292969 3.25 7.160156 3.371094 6.941406 3.503906 6.71875 3.648438 6.503906 3.769531 6.320312 3.71875 6.070312 3.53125 5.949219 3.347656 5.828125 3.101562 5.878906 2.980469 6.0625 2.824219 6.296875 2.679688 6.535156 2.546875 6.773438 2.441406 6.96875 2.511719 7.210938 2.707031 7.320312zM1.878906 9.566406C1.917969 9.578125 1.953125 9.582031 1.988281 9.582031 2.164062 9.582031 2.324219 9.46875 2.375 9.289062 2.441406 9.042969 2.523438 8.796875 2.609375 8.558594 2.6875 8.351562 2.578125 8.121094 2.371094 8.046875 2.164062 7.972656 1.933594 8.078125 1.859375 8.285156 1.765625 8.542969 1.679688 8.808594 1.605469 9.074219 1.542969 9.285156 1.667969 9.507812 1.878906 9.566406zM7.113281 2.8125C7 2.621094 6.757812 2.558594 6.566406 2.667969 6.328125 2.808594 6.089844 2.957031 5.863281 3.113281 5.683594 3.238281 5.636719 3.488281 5.761719 3.671875 5.839844 3.78125 5.964844 3.84375 6.09375 3.84375 6.171875 3.84375 6.25 3.820312 6.320312 3.773438 6.527344 3.625 6.746094 3.488281 6.96875 3.359375 7.160156 3.246094 7.222656 3.003906 7.113281 2.8125zM19.652344 5.5625C19.730469 5.65625 19.84375 5.707031 19.957031 5.707031 20.046875 5.707031 20.140625 5.675781 20.214844 5.613281 20.382812 5.46875 20.40625 5.21875 20.261719 5.046875 20.085938 4.839844 19.898438 4.632812 19.703125 4.433594 19.546875 4.277344 19.296875 4.273438 19.140625 4.429688 18.980469 4.585938 18.980469 4.835938 19.132812 4.996094 19.3125 5.179688 19.488281 5.371094 19.652344 5.5625zM2.203125 14C2.175781 13.867188 2.160156 13.734375 2.136719 13.601562L3.199219 13.601562 3.199219 10.398438 1.871094 10.398438C1.828125 10.375 1.777344 10.359375 1.722656 10.351562 1.640625 10.34375 1.566406 10.363281 1.496094 10.398438L0 10.398438 0 13.601562 1.328125 13.601562C1.355469 13.789062 1.382812 13.976562 1.417969 14.160156 1.457031 14.347656 1.625 14.480469 1.808594 14.480469 1.835938 14.480469 1.863281 14.476562 1.890625 14.472656 2.105469 14.425781 2.246094 14.214844 2.203125 14zM.800781 11.199219L2.398438 11.199219 2.398438 12.800781.800781 12.800781zM5.125 4.738281C5.285156 4.589844 5.292969 4.335938 5.140625 4.175781 4.988281 4.015625 4.734375 4.007812 4.574219 4.160156 4.375 4.347656 4.179688 4.550781 3.996094 4.753906 3.847656 4.914062 3.859375 5.167969 4.023438 5.316406 4.097656 5.386719 4.195312 5.421875 4.292969 5.421875 4.398438 5.421875 4.507812 5.375 4.585938 5.289062 4.757812 5.101562 4.9375 4.917969 5.125 4.738281zM18.605469 19.507812C18.410156 19.675781 18.210938 19.839844 18.007812 19.992188 17.832031 20.125 17.796875 20.375 17.929688 20.550781 18.007812 20.65625 18.128906 20.710938 18.25 20.710938 18.332031 20.710938 18.417969 20.683594 18.488281 20.628906 18.710938 20.464844 18.925781 20.289062 19.132812 20.105469 19.296875 19.960938 19.316406 19.707031 19.167969 19.542969 19.023438 19.375 18.769531 19.359375 18.605469 19.507812zM7.683594 21.019531C7.453125 20.910156 7.226562 20.789062 7.003906 20.660156 6.8125 20.550781 6.566406 20.617188 6.457031 20.808594 6.347656 21 6.414062 21.242188 6.605469 21.355469 6.84375 21.492188 7.089844 21.625 7.339844 21.742188 7.394531 21.769531 7.453125 21.78125 7.511719 21.78125 7.660156 21.78125 7.804688 21.699219 7.871094 21.554688 7.96875 21.355469 7.882812 21.117188 7.683594 21.019531zM18.214844 4.0625C18.335938 4.0625 18.457031 4.007812 18.535156 3.902344 18.667969 3.726562 18.632812 3.476562 18.453125 3.34375 18.230469 3.175781 18 3.019531 17.769531 2.871094 17.582031 2.753906 17.335938 2.808594 17.21875 2.996094 17.097656 3.183594 17.15625 3.429688 17.34375 3.546875 17.554688 3.683594 17.769531 3.828125 17.976562 3.984375 18.046875 4.039062 18.132812 4.0625 18.214844 4.0625zM21.78125 15.5625C21.574219 15.480469 21.339844 15.578125 21.257812 15.78125 21.160156 16.015625 21.054688 16.25 20.941406 16.480469 20.839844 16.679688 20.921875 16.917969 21.117188 17.019531 21.175781 17.046875 21.238281 17.058594 21.296875 17.058594 21.441406 17.058594 21.585938 16.980469 21.65625 16.839844 21.777344 16.589844 21.894531 16.335938 22 16.082031 22.082031 15.878906 21.984375 15.644531 21.78125 15.5625zM20.148438 17.796875C19.996094 18.003906 19.839844 18.210938 19.675781 18.40625 19.535156 18.574219 19.558594 18.828125 19.726562 18.96875 19.800781 19.03125 19.894531 19.0625 19.984375 19.0625 20.097656 19.0625 20.210938 19.011719 20.292969 18.917969 20.464844 18.707031 20.636719 18.488281 20.796875 18.261719 20.925781 18.082031 20.886719 17.832031 20.707031 17.703125 20.523438 17.574219 20.273438 17.617188 20.148438 17.796875zM16.710938 20.820312C16.488281 20.941406 16.253906 21.054688 16.019531 21.15625 15.820312 21.246094 15.726562 21.480469 15.816406 21.683594 15.882812 21.832031 16.027344 21.921875 16.183594 21.921875 16.234375 21.921875 16.289062 21.910156 16.34375 21.886719 16.597656 21.777344 16.847656 21.65625 17.089844 21.523438 17.285156 21.417969 17.359375 21.175781 17.253906 20.980469 17.148438 20.789062 16.90625 20.714844 16.710938 20.820312zM16.144531 2.863281C16.296875 2.863281 16.445312 2.773438 16.511719 2.621094 16.597656 2.417969 16.507812 2.183594 16.304688 2.09375 16.050781 1.984375 15.789062 1.882812 15.53125 1.792969 15.320312 1.71875 15.09375 1.832031 15.019531 2.039062 14.949219 2.25 15.058594 2.476562 15.269531 2.550781 15.507812 2.632812 15.75 2.726562 15.984375 2.828125 16.039062 2.851562 16.089844 2.863281 16.144531 2.863281zM9.859375 21.769531C9.609375 21.714844 9.359375 21.648438 9.113281 21.574219 8.902344 21.511719 8.679688 21.632812 8.617188 21.84375 8.554688 22.054688 8.671875 22.277344 8.886719 22.339844 9.148438 22.421875 9.417969 22.492188 9.6875 22.550781 9.71875 22.554688 9.746094 22.558594 9.773438 22.558594 9.957031 22.558594 10.125 22.429688 10.164062 22.242188 10.210938 22.027344 10.074219 21.816406 9.859375 21.769531zM9.34375 1.9375C9.28125 1.726562 9.054688 1.605469 8.84375 1.671875 8.578125 1.75 8.316406 1.84375 8.058594 1.945312 7.855469 2.023438 7.753906 2.257812 7.832031 2.460938 7.894531 2.621094 8.046875 2.714844 8.207031 2.714844 8.253906 2.714844 8.304688 2.707031 8.351562 2.6875 8.589844 2.59375 8.832031 2.511719 9.078125 2.4375 9.289062 2.371094 9.410156 2.148438 9.34375 1.9375zM14.570312 21.664062C14.324219 21.730469 14.074219 21.785156 13.820312 21.832031 13.730469 21.847656 13.65625 21.898438 13.601562 21.960938L13.601562 20.800781 10.398438 20.800781 10.398438 24 13.601562 24 13.601562 22.488281C13.675781 22.570312 13.777344 22.625 13.894531 22.625 13.917969 22.625 13.941406 22.625 13.964844 22.617188 14.238281 22.570312 14.511719 22.507812 14.777344 22.4375 14.988281 22.378906 15.117188 22.160156 15.058594 21.945312 15.003906 21.734375 14.785156 21.605469 14.570312 21.664062zM12.800781 23.199219L11.199219 23.199219 11.199219 21.601562 12.800781 21.601562zM10.398438 2.191406L10.398438 3.199219 13.601562 3.199219 13.601562 2.132812C13.660156 2.140625 13.722656 2.148438 13.78125 2.160156 14.003906 2.199219 14.207031 2.054688 14.246094 1.839844 14.285156 1.621094 14.140625 1.414062 13.925781 1.375 13.816406 1.355469 13.707031 1.34375 13.601562 1.324219L13.601562 0 10.398438 0 10.398438 1.335938C10.21875 1.394531 10.097656 1.570312 10.125 1.765625 10.148438 1.921875 10.257812 2.042969 10.398438 2.089844zM11.199219.800781L12.800781.800781 12.800781 2.398438 11.199219 2.398438zM11.199219.800781"/>
</svg>

<svg xmlns="http://www.w3.org/2000/svg" width="32" height="32" viewBox="0 0 24 24">
    <path d="M24 10.398h-3.2v3.204h1.067c-.039.238-.082.48-.14.714a.403.403 0 0 0 .296.485.38.38 0 0 0 .094.008c.18 0 .344-.121.387-.305a8.37 8.37 0 0 0 .16-.816c.008-.032 0-.06-.004-.09H24zm-.8 2.403h-1.598v-1.602h1.597zm0 0M21.508 8.902c.078.243.148.493.21.743a.396.396 0 0 0 .481.293.4.4 0 0 0 .297-.481c-.066-.27-.14-.539-.226-.8a.4.4 0 1 0-.762.245zm0 0M3.668 17.531a.398.398 0 0 0-.555-.113.397.397 0 0 0-.11.555c.153.226.317.453.485.672.078.101.2.156.317.156a.403.403 0 0 0 .316-.648 8.69 8.69 0 0 1-.453-.622zm0 0M20.922 7.484a.404.404 0 0 0 .539.176.405.405 0 0 0 .176-.539 11.077 11.077 0 0 0-.407-.726.4.4 0 1 0-.684.418c.134.218.263.445.376.671zm0 0M5.156 19.29a.401.401 0 0 0-.566.015.401.401 0 0 0 .02.566c.199.192.41.375.624.543a.4.4 0 0 0 .504-.621c-.199-.16-.394-.328-.582-.504zm0 0M2.918 16.188c-.106-.231-.203-.47-.293-.711a.399.399 0 0 0-.516-.235.399.399 0 0 0-.234.516c.094.258.203.515.32.765a.399.399 0 0 0 .723-.335zm0 0M2.707 7.32a.408.408 0 0 0 .543-.16 8.91 8.91 0 0 1 .398-.656.4.4 0 0 0-.117-.555.397.397 0 0 0-.55.114c-.157.234-.301.472-.434.71a.405.405 0 0 0 .16.547zm0 0M1.879 9.566a.4.4 0 0 0 .496-.277c.066-.246.148-.492.234-.73a.4.4 0 0 0-.75-.273c-.093.257-.18.523-.254.788a.396.396 0 0 0 .274.492zm0 0M7.113 2.813a.401.401 0 0 0-.547-.145c-.238.14-.476.289-.703.445a.404.404 0 0 0-.101.559.407.407 0 0 0 .559.102c.206-.149.425-.286.648-.415a.401.401 0 0 0 .144-.546zm0 0M19.652 5.563a.399.399 0 1 0 .61-.516 11.646 11.646 0 0 0-.559-.613.4.4 0 0 0-.57.563c.18.183.355.374.52.566zm0 0M2.203 14c-.027-.133-.043-.266-.066-.398h1.062v-3.204H1.871a.441.441 0 0 0-.148-.046.41.41 0 0 0-.227.046H0v3.204h1.328c.027.187.055.375.09.558.039.188.207.32.39.32.028 0 .055-.003.083-.007A.406.406 0 0 0 2.203 14zM.801 11.2h1.597v1.6H.801zm0 0M5.125 4.738a.396.396 0 0 0 .016-.562.401.401 0 0 0-.567-.016c-.199.188-.394.39-.578.594a.397.397 0 0 0 .027.562.391.391 0 0 0 .563-.027c.172-.187.351-.371.539-.55zm0 0M18.605 19.508c-.195.168-.394.332-.597.484a.399.399 0 1 0 .48.637c.223-.164.438-.34.645-.524a.397.397 0 0 0 .035-.562.393.393 0 0 0-.563-.035zm0 0M7.684 21.02c-.23-.11-.457-.23-.68-.36a.402.402 0 0 0-.547.149.403.403 0 0 0 .148.546c.239.137.485.27.735.387a.393.393 0 0 0 .531-.188.4.4 0 0 0-.187-.534zm0 0M18.215 4.063a.398.398 0 0 0 .238-.72 11.23 11.23 0 0 0-.683-.472.399.399 0 0 0-.551.125.395.395 0 0 0 .125.55c.21.138.426.282.633.438.07.055.156.079.238.079zm0 0M21.781 15.563a.403.403 0 0 0-.523.218c-.098.235-.203.469-.317.7-.101.199-.02.437.176.539.059.027.121.039.18.039.144 0 .289-.079.36-.22.12-.25.238-.503.343-.757a.4.4 0 0 0-.219-.52zm0 0M20.148 17.797a12.06 12.06 0 0 1-.472.61.401.401 0 0 0 .308.655c.114 0 .227-.05.309-.144.172-.211.344-.43.504-.656a.4.4 0 1 0-.649-.465zm0 0M16.71 20.82a8.685 8.685 0 0 1-.69.336.401.401 0 0 0 .164.766.41.41 0 0 0 .16-.035c.254-.11.504-.23.746-.364a.4.4 0 0 0 .164-.543.403.403 0 0 0-.543-.16zm0 0M16.145 2.863a.402.402 0 0 0 .16-.77c-.254-.109-.516-.21-.774-.3a.402.402 0 0 0-.511.246c-.07.211.039.438.25.512.238.082.48.176.714.277a.396.396 0 0 0 .16.035zm0 0M9.86 21.77c-.25-.055-.5-.122-.747-.196a.4.4 0 0 0-.226.766c.261.082.531.152.8.21a.4.4 0 0 0 .172-.781zm0 0M9.344 1.938a.399.399 0 0 0-.5-.266 9.332 9.332 0 0 0-.785.273.401.401 0 0 0-.227.516.4.4 0 0 0 .52.227 9.37 9.37 0 0 1 .726-.25.4.4 0 0 0 .266-.5zm0 0M14.57 21.664a9.485 9.485 0 0 1-.75.168.38.38 0 0 0-.218.129V20.8h-3.204V24h3.204v-1.512a.394.394 0 0 0 .293.137c.023 0 .046 0 .07-.008.273-.047.547-.11.812-.18a.402.402 0 0 0 .282-.492.396.396 0 0 0-.489-.28zM12.8 23.2h-1.6v-1.597h1.6zm0 0M10.398 2.191V3.2h3.204V2.133c.058.008.12.015.18.027a.4.4 0 0 0 .145-.785c-.11-.02-.22-.031-.325-.05V0h-3.204v1.336a.395.395 0 0 0 0 .754zM11.2.801h1.602v1.597h-1.602zm0 0"/>
</svg>
